X: 15
T: 15. Flights of Fancy
M: C
L: 1/8
Q: 1/4=130
K: C
G | ccec gcec | ccec Bd-df | ccec geec B/c/d Gd ec c :|!
g | egcg afge | gcec Bd-df | egcg afge | G>A cd ec-cg|!
egcg afge | gcec Bcde | fadf egce | G>ABd ec c |]!

